resources/src/mediawiki.skinning/images/document-rtl.svg

<?xml version="1.0" encoding="UTF-8" standalone="no"?>
<svg xmlns:rdf="http://www.w3.org/1999/02/22-rdf-syntax-ns#" xmlns="http://www.w3.org/2000/svg" height="13" width="13" version="1.1" xmlns:cc="http://creativecommons.org/ns#" xmlns:dc="http://purl.org/dc/elements/1.1/">
<path style="opacity:1;fill:#15a5ea;" d="m5.5,2,0,3-2.5,0-1-1,2.5,0,0-3z"/>
<path style="opacity:1;fill:#3366bb;" d="m10,1,0,10-8,0,0-7,2.5-3zm-1,1-4,0-2,2.5,0,5.5,6,0z"/>
</svg>

<?xml version="1.0" encoding="UTF-8"?>
<svg xmlns="http://www.w3.org/2000/svg" width="13" height="13">
	<path fill="#15a5ea" d="M5.5 2v3H3L2 4h2.5V1z"/>
	<path fill="#36b" d="M10 1v10H2V4l2.5-3zM9 2H5L3 4.5V10h6z"/>
</svg>
